X: 75
T: Bobbing Joe
P: Longways for as many as will
%R: jig
B: "The Dancing-Master" printed by John Walsh, London
S: 6: CCDM1 http://imslp.org/wiki/The_Compleat_Country_Dancing-Master_(Various) V.1 p.?? #35
Z: 2012-2013 John Chambers <jc:trillian.mit.edu>
B: "The Dancing-Master: Containing Directions and Tunes for Dancing" printed by W. Pearson for John Walsh, London ca. 1709
S: 7: DMDfD http://digital.nls.uk/special-collections-of-printed-music/pageturner.cfm?id=89751228 p.57
N: Both parts should probably be repeated.
N: The dance description has 6 sections, with two columns; ## marks the right column.
M: 6/4
L: 1/4
K: Am
% - - - - - - - - - - - - - - - - - - - - - - - - -
[|\
A2e e2d | e>fg B>AG | A2B c2d | eB2 A3 |][|\
Bd2 G2G | Bd2  G2G  | A2B c2d | eB2 A3 |]
% - - - - - - - - Dance description - - - - - - - -
%%begintext align
%% Lead up forward and back .| That again :|
%% ##
%% Sett and turn S .| That again .|
%%endtext
%%sep 1 1 300
%%begintext align
%% First Couple slip down between the second, they slipping up .|
%% Then they slip down :|  Hands and go round :|
%% ##
%% First two Men snap their Fingers and change Places .|  Your We.
%% as much :|  Do these two Changes to the last, the rest following.
%%endtext
%%sep 1 1 300
%%begintext align
%% Sides all .|  That again :|
%% ##
%% Sett and turn S .|  That again :|
%%endtext
%%sep 1 1 300
%%begintext align
%% First two on each Side Hands and go back, meet again .|
%% Cast off and come to your Places :|
%% ##
%% First four change Places with your own .| Hands and go half
%% round :|  These Changes to the last.
%%endtext
%%sep 1 1 300
%%begintext align
%% Arms all .|  That again :|
%% ##
%% Sett and turn S .|  That again :|
%%endtext
%%sep 1 1 300
%%begintext align
%% Men back a Double, meet again .|  We. as much .:|
%% ##
%% First Cu. change with the 2d on the same Side .|  Then change
%% with your own :|  These Changes to the last.
%% [CCDM1]
%%endtext
%%sep 1 8 500
%%begintext align
%% Lead up forward and back .| that again.
%% ##
%% Set and turn S. .| that again :|
%%endtext
%%sep 1 1 300
%%begintext align
%% First couple slip down between the second
%% they slipping up .| Then they slip down .|
%% Hands and go round :|
%% ##
%% First two men snap their Fingers and change places .|
%% Your we. as much .| Do these two Changes to the last, the rest following.
%%endtext
%%sep 1 1 300
%%begintext align
%% Sides all .| That again :|
%% ##
%% Set and turn S. .| That again :|
%%endtext
%%sep 1 1 300
%%begintext align
%% First two on each side hands and go back,
%% meet again .| Cast off and come to your places :|
%% ##
%% First four change places with your own .| Hands and go half round :|
%% These Changes to the last.
%%endtext
%%sep 1 1 300
%%begintext align
%% Arms all .| that again :|
%% ##
%% Set and turn S .| That again :|
%%endtext
%%sep 1 1 300
%%begintext align
%% Men back a D. meet again .| We. as much .:|
%% ##
%% First cu. change with the 2. on the same side .| Then change with your
%% own :| These Changes to the last.
%% [DMDfD]
%%endtext
%%sep 1 8 500

%%sep 1 1 500
%%sep 1 1 500
